X:1
T:Title
%%score { 1 | 2 }
L:1/8
M:4/4
K:Ab
V:1 treble nm="Grand Piano"
V:2 bass 
V:1
 z4 z2[Q:1/4=116] [CE]2 | [CE]2 [CE]2 [DF]2 [DF]2 | [CE]2 [B,D]2 [A,C]2 [CE]2 | [CA]2 [EA]2 B2 B2 | %4
[M:3/4] c6 |[M:1/4] c2 |[M:4/4] d2 c2 B2 d2 | c2 [EB]2 [EA]2 [Ec]2 | [EB]2 [FA]2 [EG]2 [=DF]2 | %9
[M:3/4] E6 |[M:1/4] A2 |[M:4/4] A2 E4 c2 | c2 A4 e2 | e2 c2 [=DAB]2 [DAB]2 |[M:3/4] [EGB]6 | %15
[M:1/4] [G,DE]2 |[M:4/4] [A,CE]2 [CEA]2 [EAc]2 [_Ge]2 | [_Ge]2 [Fd]4 [FB]2 | A2 A2 G2 B2 | %19
[M:3/4] A6 |] %20
V:2
 z4 z2 [A,,A,]2 | [A,,A,]2 [A,,A,]2 [D,A,]2 [D,A,]2 | [A,,A,]2 [A,,E,]2 [A,,E,]2 [A,,A,]2 | %3
 [A,,A,]2 [C,A,]2 [E,G,E]2 [E,G,E]2 |[M:3/4][K:treble] [A,E]6 |[M:1/4] [A,EA]2 | %6
[M:4/4] [B,EG]2 [A,EA]2 [G,E]2[K:bass] [F,A,D]2 | [E,A,E]2 [D,G,]2 [C,A,]2 [A,,A,]2 | %8
 [B,,G,]2 [B,,B,]2 [B,,B,]2 [B,,A,]2 |[M:3/4] [E,G,]6 |[M:1/4][K:treble] [A,CE]2 | %11
[M:4/4] [A,CE]2 [A,C]4 [A,EA]2 | [A,EA]2 [A,C]4 [A,CA]2 | [A,CA]2 [A,EA]2[K:bass] F,2 B,,2 | %14
[M:3/4] E,6 |[M:1/4] E,2 |[M:4/4] A,,2 A,2 A,2 [A,C]2 | [D,A,]2 [D,A,]4 [D,A,]2 | %18
 [E,CE]2 [E,CE]2 [E,B,E]2 [E,DE]2 |[M:3/4] [A,CE]6 |] %20

